X:1
T:Drink of Brandy -- Slipjig
R:slip jig
B:Ryan's Mammoth Collection
N: 85 433
Z: Contributed by Ray Davies,  ray:davies99.freeserve.co.uk
M:9/8
L:1/8
K:G
uD"^Segno"|\
G2B BAB BAB | G2B BAB c2A | G2B BAB BAB | ABA A2B c2A |
G2B BAB BAB | G2B BAB c2A | G2B BAB BAB | ABA A2B c2A H|]
vG2B d2B d2B | G2B d2B c2A | G2B d2B d2B | ABA A2B c2A |
 G2B d2B d2B | G2B d2B c2A | G2B d2B d2A | ABA A2B c2A "^Segno"|]
